src/Pure-Dark/16/symbolic/status/appointment-soon-symbolic.svg

<?xml version="1.0" encoding="UTF-8" standalone="no"?>
<svg
   width="16"
   height="16"
   version="1.1"
   id="svg3"
   sodipodi:docname="appointment-soon-symbolic.svg"
   inkscape:version="1.4.2 (ebf0e940d0, 2025-05-08)"
   xmlns:inkscape="http://www.inkscape.org/namespaces/inkscape"
   xmlns:sodipodi="http://sodipodi.sourceforge.net/DTD/sodipodi-0.dtd"
   xmlns="http://www.w3.org/2000/svg"
   xmlns:svg="http://www.w3.org/2000/svg">
  <defs
      id="defs3">
      <style
          id="current-color-scheme"
          type="text/css">
          .ColorScheme-Text { color:#f2f2f2; }
          .ColorScheme-NeutralText { color:#f67400; }
          .ColorScheme-PositiveText { color:#37c837; }
          .ColorScheme-NegativeText { color:#f44336; }
      </style>
  </defs>
  <sodipodi:namedview
     id="namedview3"
     pagecolor="#ffffff"
     bordercolor="#000000"
     borderopacity="0.25"
     inkscape:showpageshadow="2"
     inkscape:pageopacity="0.0"
     inkscape:pagecheckerboard="0"
     inkscape:deskcolor="#d1d1d1"
     inkscape:zoom="49.6875"
     inkscape:cx="8"
     inkscape:cy="8"
     inkscape:window-width="1920"
     inkscape:window-height="1010"
     inkscape:window-x="0"
     inkscape:window-y="0"
     inkscape:window-maximized="1"
     inkscape:current-layer="svg3" />
  <path
     id="path1"
     style="fill:currentColor"
     class="ColorScheme-Text"
     d="M 7.4628906 0 A 7.5 7.5 0 0 0 0 7.5 A 7.5 7.5 0 0 0 7.5 15 A 7.5 7.5 0 0 0 8 14.982422 L 8 13.980469 A 6.5 6.5 0 0 1 7.5 14 A 6.5 6.5 0 0 1 1 7.5 A 6.5 6.5 0 0 1 7.5 1 A 6.5 6.5 0 0 1 14 7.5 A 6.5 6.5 0 0 1 13.824219 9 L 14.847656 9 A 7.5 7.5 0 0 0 15 7.5 A 7.5 7.5 0 0 0 7.5 0 A 7.5 7.5 0 0 0 7.4628906 0 z M 10.464844 4.0019531 A 0.5 0.5 0 0 0 10.392578 4.0097656 L 10.392578 4.0175781 A 0.5 0.5 0 0 0 10.142578 4.1738281 L 7.4863281 6.8222656 L 5.8300781 5.1738281 C 5.5160781 4.6598281 4.6295781 5.5473281 5.1425781 5.8613281 L 7.1425781 7.8613281 A 0.5 0.5 0 0 0 7.8300781 7.8613281 L 10.830078 4.8613281 A 0.5 0.5 0 0 0 10.464844 4.0019531 z " />
  <path
     id="path2"
     style="fill:currentColor"
     class="ColorScheme-NeutralText warning"
     d="M 12.480469 9.7285156 A 0.44 0.44 0 0 0 12.119141 9.9492188 L 9.0585938 15.345703 A 0.437 0.437 0 0 0 9.4375 16 L 15.5625 16 A 0.437 0.437 0 0 0 15.941406 15.345703 L 12.882812 9.9492188 A 0.439 0.439 0 0 0 12.480469 9.7285156 z M 12 11 L 13 11 L 13 13 L 12 13 L 12 11 z M 12 14 L 13 14 L 13 15 L 12 15 L 12 14 z " />
</svg>

<svg width="16" height="16" version="1.1" xmlns="http://www.w3.org/2000/svg">
 <path d="m10.465 4.002a0.5 0.5 0 0 0-0.072 8e-3v8e-3a0.5 0.5 0 0 0-0.25 0.156l-2.656 2.648-1.657-1.648c-0.314-0.514-1.2 0.373-0.687 0.687l2 2a0.5 0.5 0 0 0 0.687 0l3-3a0.5 0.5 0 0 0-0.365-0.859z" color="#000000" fill="#f2f2f2" style="font-feature-settings:normal;font-variant-alternates:normal;font-variant-caps:normal;font-variant-ligatures:normal;font-variant-numeric:normal;font-variant-position:normal;isolation:auto;mix-blend-mode:normal;shape-padding:0;text-decoration-color:#000000;text-decoration-line:none;text-decoration-style:solid;text-indent:0;text-orientation:mixed;text-transform:none;white-space:normal"/>
 <path class="warning" d="m12.48 9.729a0.44 0.44 0 0 0-0.36 0.22l-3.061 5.397a0.437 0.437 0 0 0 0.379 0.654h6.125a0.437 0.437 0 0 0 0.379-0.654l-3.06-5.397a0.439 0.439 0 0 0-0.401-0.22zm-0.48 1.271h1v2h-1zm0 3h1v1h-1z" color="#000000" fill="#f9c440" fill-rule="evenodd" font-weight="400" overflow="visible" style="isolation:auto;mix-blend-mode:normal;text-decoration-color:#000000;text-decoration-line:none;text-decoration-style:solid;text-indent:0;text-transform:none;white-space:normal"/>
 <path d="m7.463 2.2817e-5a7.5 7.5 0 0 0-7.463 7.5 7.5 7.5 0 0 0 7.5 7.5 7.5 7.5 0 0 0 0.5-0.018v-1.002a6.5 6.5 0 0 1-0.5 0.02 6.5 6.5 0 0 1-6.5-6.5 6.5 6.5 0 0 1 6.5-6.5 6.5 6.5 0 0 1 6.5 6.5 6.5 6.5 0 0 1-0.176 1.5h1.024a7.5 7.5 0 0 0 0.152-1.5 7.5 7.5 0 0 0-7.5-7.5 7.5 7.5 0 0 0-0.037 0z" fill="#f2f2f2"/>
</svg>
